img/svg/partners-image-6.svg

<svg width="166" height="39" viewBox="0 0 166 39" fill="none" xmlns="http://www.w3.org/2000/svg">
<path fill-rule="evenodd" clip-rule="evenodd" d="M43.1488 25.108H46.9734C48.4658 25.108 49.0329 25.6224 49.0329 26.8844C49.0329 28.0985 48.4649 28.6129 46.9734 28.6129H43.1488V25.108ZM37.2225 37.8654H43.1488V32.6773H49.4955C53.6982 32.6773 55.2113 30.2012 55.2113 27.0011C55.2113 23.2856 53.6558 21.1828 49.4523 21.1828H37.2225V37.8654ZM57.1654 21.1838H73.1154V25.2482H63.0918V27.491H72.4017V31.5573H63.0918V33.8001H73.1154V37.8654H57.1654V21.1838ZM81.5207 25.108H85.3452C86.8386 25.108 87.4056 25.6224 87.4056 26.8844C87.4056 28.0985 86.8376 28.6129 85.3452 28.6129H81.5207V25.108ZM75.5952 37.8654H81.5216V32.6773H87.8683C92.0728 32.6773 93.584 30.2012 93.584 27.0011C93.584 23.2856 92.0286 21.1828 87.826 21.1828H75.5952V37.8654ZM99.3214 30.7852C96.4212 30.2953 95.2241 28.4248 95.2241 26.0889C95.2241 21.7668 99.028 20.5989 103.903 20.5989C110.584 20.5989 113.338 22.5379 113.55 26.0663H106.656C106.656 25.3873 106.298 24.966 105.753 24.7328C105.227 24.478 104.556 24.383 103.903 24.383C102.138 24.383 101.528 24.8739 101.528 25.5754C101.528 26.0419 101.717 26.3465 102.305 26.4396L109.387 27.6076C112.372 28.0975 114.222 29.6407 114.222 32.4676C114.222 36.5329 111.237 38.4485 104.575 38.4485C100.016 38.4485 95.0351 37.7479 95.0134 32.8418H102.159C102.18 33.4014 102.37 33.7747 102.79 34.0324C103.232 34.2665 103.883 34.3831 104.808 34.3831C106.657 34.3831 107.162 33.8227 107.162 33.028C107.162 32.5381 106.889 32.0472 106.089 31.908L99.3214 30.7852ZM116.153 21.1838H122.08V37.8654H116.153V21.1838ZM144.039 31.3701C143.661 33.5669 142.989 35.3423 141.517 36.5573C140.068 37.7733 137.798 38.4503 134.183 38.4503C130.59 38.4503 123.929 38.1692 123.929 29.526C123.929 20.8819 130.59 20.6007 134.183 20.6007C137.755 20.6007 143.261 21.1151 144.038 27.727H137.357C137.189 26.5346 136.474 24.8062 134.183 24.8062C131.766 24.8062 130.232 26.1387 130.232 29.5269C130.232 32.9152 131.725 34.2468 133.889 34.2468C135.761 34.2468 136.874 33.3816 137.357 31.372H144.039V31.3701ZM151.794 29.5251C151.794 26.1368 153.33 24.8043 155.745 24.8043C158.162 24.8043 159.697 26.1368 159.697 29.5251C159.697 32.9133 158.162 34.2449 155.745 34.2449C153.329 34.244 151.794 32.9124 151.794 29.5251ZM145.49 29.5251C145.49 38.1682 152.152 38.4494 155.744 38.4494C159.338 38.4494 166 38.1682 166 29.5251C166 20.881 159.338 20.5998 155.744 20.5998C152.152 20.5989 145.49 20.88 145.49 29.5251ZM28.268 21.3484C28.6508 13.3447 21.7483 4.33194 12.3396 3.21757L12.3556 3.10849C21.6317 3.10849 28.7429 11.6962 28.7429 18.4698C28.7335 19.8804 28.6226 20.754 28.4232 21.3888L28.268 21.3484ZM27.7057 22.3659C27.0197 23.1905 26.2476 23.9395 25.4027 24.6002C23.7297 14.9791 16.6589 6.56443 11.6607 4.10812L11.5535 4.18336C16.5808 8.30886 22.5777 16.3219 24.9089 24.9773C23.7196 25.8508 22.4349 26.5866 21.0797 27.1703C16.3354 21.7602 11.9127 11.3266 10.4871 4.70622L10.3422 4.74947C10.3742 11.1761 14.937 22.0875 20.5013 27.4101C19.2256 27.9162 17.8988 28.2826 16.5441 28.5029C11.2102 26.3898 7.41385 19.6227 7.41385 12.6902C7.41385 8.16404 8.79341 5.36449 9.06048 4.79179L8.9467 4.74665C8.62414 5.23566 6.60229 8.03333 6.60229 12.9187C6.60229 20.755 10.4673 26.7453 15.5981 28.6308C13.7634 28.8332 11.9083 28.7462 10.1006 28.3731L10.062 28.4925C10.6103 28.6947 12.4732 29.4771 15.3132 29.4771C21.7389 29.4771 26.0816 25.4842 27.8307 22.4495L27.7057 22.3659Z" fill="#255398"/>
<path fill-rule="evenodd" clip-rule="evenodd" d="M14.6718 0.280762C9.80055 0.280762 4.08954 3.79595 4.08954 7.00927C4.08954 8.25247 5.22647 9.3029 7.57934 9.3029C13.0421 9.3029 18.1183 5.54979 18.1183 2.6308C18.1183 1.09514 16.6429 0.280762 14.6718 0.280762ZM16.6156 2.53959C16.6156 4.99965 11.892 8.00704 7.94233 8.00704C6.1979 8.00704 5.25469 7.32054 5.25469 6.18643C5.25469 3.69063 10.0328 0.734973 13.737 0.734973C16.152 0.735914 16.6156 1.96501 16.6156 2.53959Z" fill="#0097D5"/>
<path fill-rule="evenodd" clip-rule="evenodd" d="M2.1485 8.497C2.0112 8.73398 1.46295 9.80791 1.46295 10.9072C1.46295 12.9479 3.5243 14.8418 7.31597 14.8418C14.6097 14.8418 23.0365 9.47313 23.0365 4.48904C23.0365 2.25185 20.9188 1.03592 19.4489 0.784836L19.4207 0.871348C19.8778 1.01617 21.5535 1.79482 21.5535 3.78845C21.5535 7.7588 14.1131 13.1698 6.70189 13.1698C3.86472 13.1698 2.07703 11.7696 2.07703 9.72891C2.07703 9.08286 2.21151 8.65875 2.24724 8.53462L2.1485 8.497Z" fill="#D9783E"/>
<path fill-rule="evenodd" clip-rule="evenodd" d="M26.044 4.86238C26.2443 5.01472 27.4452 6.0153 27.4452 7.90926C27.4452 14.366 17.3303 20.7137 8.38719 20.7137C3.05422 20.7137 0.6233 18.0806 0.730504 15.7427H0.825485C1.03519 16.9568 2.76646 19.13 7.43363 19.13C16.3871 19.13 26.3844 12.5614 26.3844 6.80618C26.3844 5.81876 26.1164 5.2028 25.965 4.93009L26.044 4.86238Z" fill="#2F9C5C"/>
<path fill-rule="evenodd" clip-rule="evenodd" d="M29.4259 10.8894C29.4673 11.0267 29.6854 11.6445 29.6854 12.6131C29.6854 19.7939 19.4474 25.9422 10.5447 25.9422C5.96211 25.9422 3.56975 23.7163 3.06476 22.8126L3.14563 22.7524C4.41328 23.8621 6.91003 24.7037 9.82525 24.7037C17.6879 24.7037 29.4212 18.7219 29.3168 10.9157L29.4259 10.8894Z" fill="#CC2131"/>
</svg>

<svg width="166" height="39" viewBox="0 0 166 39" fill="none" xmlns="http://www.w3.org/2000/svg"><path fill-rule="evenodd" clip-rule="evenodd" d="M43.149 25.108h3.824c1.493 0 2.06.514 2.06 1.776 0 1.215-.568 1.729-2.06 1.729H43.15v-3.505zm-5.927 12.757h5.927v-5.188h6.346c4.203 0 5.716-2.476 5.716-5.676 0-3.715-1.555-5.818-5.759-5.818h-12.23v16.682zm19.943-16.681h15.95v4.064H63.092v2.243h9.31v4.066h-9.31V33.8h10.023v4.065h-15.95V21.184zm24.356 3.924h3.824c1.494 0 2.06.514 2.06 1.776 0 1.215-.567 1.729-2.06 1.729h-3.824v-3.505zm-5.926 12.757h5.927v-5.188h6.346c4.205 0 5.716-2.476 5.716-5.676 0-3.715-1.555-5.818-5.758-5.818h-12.23v16.682zm23.726-7.08c-2.9-.49-4.097-2.36-4.097-4.696 0-4.322 3.804-5.49 8.679-5.49 6.681 0 9.435 1.939 9.647 5.467h-6.894c0-.679-.358-1.1-.903-1.333-.526-.255-1.197-.35-1.85-.35-1.765 0-2.375.49-2.375 1.192 0 .467.189.771.777.865l7.082 1.168c2.985.49 4.835 2.033 4.835 4.86 0 4.065-2.985 5.98-9.647 5.98-4.559 0-9.54-.7-9.562-5.606h7.146c.021.56.211.933.631 1.19.442.235 1.093.351 2.018.351 1.849 0 2.354-.56 2.354-1.355 0-.49-.273-.98-1.073-1.12l-6.768-1.123zm16.832-9.601h5.927v16.681h-5.927V21.184zm27.886 10.186c-.378 2.197-1.05 3.972-2.522 5.187-1.449 1.216-3.719 1.893-7.334 1.893-3.593 0-10.254-.28-10.254-8.924s6.661-8.925 10.254-8.925c3.572 0 9.078.514 9.855 7.126h-6.681c-.168-1.192-.883-2.92-3.174-2.92-2.417 0-3.951 1.332-3.951 4.72s1.493 4.72 3.657 4.72c1.872 0 2.985-.865 3.468-2.875h6.682v-.002zm7.755-1.845c0-3.388 1.536-4.72 3.951-4.72 2.417 0 3.952 1.332 3.952 4.72s-1.535 4.72-3.952 4.72c-2.416-.001-3.951-1.333-3.951-4.72zm-6.304 0c0 8.643 6.662 8.924 10.254 8.924 3.594 0 10.256-.28 10.256-8.924s-6.662-8.925-10.256-8.925c-3.592-.001-10.254.28-10.254 8.925zM28.268 21.348c.383-8.003-6.52-17.016-15.928-18.13l.016-.11c9.276 0 16.387 8.588 16.387 15.362-.01 1.41-.12 2.284-.32 2.919l-.155-.04zm-.562 1.018a15.077 15.077 0 01-2.303 2.234C23.73 14.98 16.659 6.564 11.66 4.108l-.107.075C16.58 8.31 22.578 16.322 24.909 24.977a19.5 19.5 0 01-3.83 2.193c-4.744-5.41-9.166-15.843-10.592-22.464l-.145.043c.032 6.427 4.595 17.338 10.16 22.661a19.002 19.002 0 01-3.958 1.093c-5.334-2.113-9.13-8.88-9.13-15.813 0-4.526 1.38-7.326 1.646-7.898l-.113-.045c-.323.489-2.345 3.286-2.345 8.172 0 7.836 3.865 13.826 8.996 15.712-1.835.202-3.69.115-5.497-.258l-.039.12c.548.202 2.411.984 5.251.984 6.426 0 10.769-3.993 12.518-7.027l-.125-.084z" fill="#255398"/><path fill-rule="evenodd" clip-rule="evenodd" d="M14.672.28C9.8.28 4.09 3.797 4.09 7.01c0 1.242 1.136 2.293 3.49 2.293 5.462 0 10.538-3.753 10.538-6.672 0-1.536-1.475-2.35-3.446-2.35zm1.944 2.26c0 2.46-4.724 5.467-8.674 5.467-1.744 0-2.687-.686-2.687-1.82 0-2.496 4.778-5.452 8.482-5.452 2.415 0 2.879 1.23 2.879 1.805z" fill="#0097D5"/><path fill-rule="evenodd" clip-rule="evenodd" d="M2.148 8.497c-.137.237-.685 1.31-.685 2.41 0 2.04 2.061 3.935 5.853 3.935 7.294 0 15.72-5.369 15.72-10.353 0-2.237-2.117-3.453-3.587-3.704L19.42.87c.457.145 2.133.924 2.133 2.917 0 3.97-7.44 9.382-14.852 9.382-2.837 0-4.625-1.4-4.625-3.441 0-.646.135-1.07.17-1.194l-.099-.038z" fill="#D9783E"/><path fill-rule="evenodd" clip-rule="evenodd" d="M26.044 4.862c.2.153 1.401 1.153 1.401 3.047 0 6.457-10.115 12.805-19.058 12.805-5.333 0-7.764-2.633-7.656-4.971h.094c.21 1.214 1.941 3.387 6.609 3.387 8.953 0 18.95-6.569 18.95-12.324 0-.987-.268-1.603-.419-1.876l.079-.068z" fill="#2F9C5C"/><path fill-rule="evenodd" clip-rule="evenodd" d="M29.426 10.89c.041.137.26.755.26 1.723 0 7.18-10.239 13.33-19.141 13.33-4.583 0-6.975-2.227-7.48-3.13l.08-.06c1.268 1.11 3.765 1.95 6.68 1.95 7.863 0 19.596-5.981 19.492-13.787l.109-.027z" fill="#CC2131"/></svg>
